storage/app/icons/phosphoricons/fill/rows-plus-bottom-fill.svg

<svg xmlns="http://www.w3.org/2000/svg" fill="currentColor" viewBox="0 0 256 256"><path d="M224 128v24a16 16 0 0 1-16 16H48a16 16 0 0 1-16-16v-24a16 16 0 0 1 16-16h160a16 16 0 0 1 16 16m-16-88H48a16 16 0 0 0-16 16v24a16 16 0 0 0 16 16h160a16 16 0 0 0 16-16V56a16 16 0 0 0-16-16m-56 168h-16v-16a8 8 0 0 0-16 0v16h-16a8 8 0 0 0 0 16h16v16a8 8 0 0 0 16 0v-16h16a8 8 0 0 0 0-16"/></svg>

<svg xmlns="http://www.w3.org/2000/svg" viewBox="0 0 256 256" fill="currentColor"><path d="M224,128v24a16,16,0,0,1-16,16H48a16,16,0,0,1-16-16V128a16,16,0,0,1,16-16H208A16,16,0,0,1,224,128ZM208,40H48A16,16,0,0,0,32,56V80A16,16,0,0,0,48,96H208a16,16,0,0,0,16-16V56A16,16,0,0,0,208,40ZM152,208H136V192a8,8,0,0,0-16,0v16H104a8,8,0,0,0,0,16h16v16a8,8,0,0,0,16,0V224h16a8,8,0,0,0,0-16Z"/></svg>
